local/share/icons/dracula-icons-main/22/actions/mail-unread-multiple.svg

<?xml version="1.0" encoding="UTF-8"?>
<svg xmlns="http://www.w3.org/2000/svg" xmlns:xlink="http://www.w3.org/1999/xlink" width="22" height="22" viewBox="0 0 22 22">
<path fill-rule="nonzero" fill="rgb(100%, 100%, 100%)" fill-opacity="1" d="M 5 5 C 3.890625 5 3 5.890625 3 7 L 3 15 C 3 16.109375 3.890625 17 5 17 L 11 17 L 11 12 L 5 9 L 5 7 L 11 10 L 17 7 L 17 9 L 15 10 L 18 10 C 18.363281 10 18.703125 10.109375 19 10.28125 L 19 7 C 19 5.890625 18.109375 5 17 5 Z M 13 11 C 12.445312 11 12 11.445312 12 12 L 12 17 C 12 17.554688 12.445312 18 13 18 L 18 18 C 18.554688 18 19 17.554688 19 17 L 19 12 C 19 11.445312 18.554688 11 18 11 Z M 13 12 L 14 12 L 14 13 L 15 13 L 15 14 L 16 14 L 16 13 L 17 13 L 17 12 L 18 12 L 18 17 L 17 17 L 17 14 L 16 14 L 16 15 L 15 15 L 15 14 L 14 14 L 14 17 L 13 17 Z M 13 12 "/>
</svg>

<svg xmlns="http://www.w3.org/2000/svg" width="22" height="22" version="1.1" viewBox="0 0 22 22">
 <defs>
  <style id="current-color-scheme" type="text/css">
   .ColorScheme-Text { color:#FFFFFF; } .ColorScheme-Highlight { color:#5294e2; }
  </style>
 </defs>
 <path style="fill:currentColor" class="ColorScheme-Text" d="M 5,5 C 3.892,5 3,5.892 3,7 l 0,8 c 0,1.108 0.892,2 2,2 l 6,0 0,-5 -6,-3 0,-2 6,3 6,-3 0,2 -2,1 3,0 c 0.363969,0 0.703481,0.107739 1,0.283203 L 19,7 C 19,5.892 18.108,5 17,5 L 5,5 Z m 8,6 c -0.554,0 -1,0.446001 -1,1 l 0,5 c 0,0.554 0.446,1 1,1 l 5,0 c 0.554,0 1,-0.446 1,-1 l 0,-5 c 0,-0.553999 -0.446,-1 -1,-1 l -5,0 z m 0,1 1,0 0,1 1,0 0,1 1,0 0,-1 1,0 0,-1 1,0 0,5 -1,0 0,-3 -1,0 0,1 -1,0 0,-1 -1,0 0,3 -1,0 0,-5 z"/>
 <path style="fill:none" d="m 10,14.000001 c -0.5540002,0 -1.0000002,0.446 -1.0000002,0.999999 l 0,5 c 0,0.554 0.446,1 1.0000002,1 l 5,0 c 0.554,0 1,-0.446 1,-1 l 0,-5 c 0,-0.553999 -0.446,-0.999999 -1,-0.999999 l -5,0 z M 10,15 l 1,0 0,1 1,0 0,1 1,0 0,-1 1,0 0,-1 1,0 0,5 -1,0 0,-3 -1,0 0,1 -1,0 0,-1 -1,0 0,3 -1,0 0,-5 z"/>
</svg>
